!!!!SEGMENT: pl-kozmzk--mzk-m-31--009_szymanowska-maria--preludium-b-dur.krn
!!!cenid: 18xx:445
!!!COM: Szymanowska, Maria
!!!COM-rismID: pe140138
!!!CDT: 1789/12/14-1831/07/25
!!!CNT: Polish
!!!GTL: Vingt Exercices et Préludes pour le Pianoforte
!!!OTL: Preludium B-dur
!!!PDT: 1819
!!!AGN: Secular; Prelude
!!!SMS-siglum: PL-KOZmzk
!!!SMS-shelfmark: mzk/m/31
!!!SMS-shelfwork: 009 G
!!!SMS-variant:
!!!SMS-altvar:
!!!NIFC-rismSourceID: 1001025323
!!!NIFC-rismChildID: 1001025332
!!!NIFC-islandoraID: pl-kozmzk:6325
!!!URL-pdf-islandora: https://repozytorium.nifc.pl/islandora/object/pl-kozmzk%3A6325/datastream/PDF/view
!!!URL-scan: https://polish.musicsources.pl/pl/lokalizacje/galeria/rekopisy/462 @EN{Scan on Polish Music Sources Website} @PL{Skany w portalu Dziedzictwo Muzyki Polskiej w otwartym dostępie}
!!!ONB-nifc:
!!!AIN: 1 piano
!!!key:
**kern	**fing	**kern	**fing	**dynam
*part1	*	*part1	*	*part1
*staff2	*	*staff1	*	*
*Ipiano	*	*Iempty	*	*
*I"Pianoforte	*	*	*	*
*I'P-no	*	*	*	*
*clefF4	*	*clefG2	*	*
*k[b-e-]	*	*k[b-e-]	*	*
*B-:	*	*B-:	*	*
*M6/8	*	*M6/8	*	*
*>[AA1AA2BB1BB2C]	*>[AA1AA2BB1BB2C]	*>[AA1AA2BB1BB2C]	*>[AA1AA2BB1BB2C]	*>[AA1AA2BB1BB2C]
=1	=1	=1	=1	=1
*>A	*>A	*>A	*>A	*>A
!	!	!LO:TX:a:Bi:t=Moderato	!	!
!	!	!LO:TX:b:i:t=piano e legato	!	!
16BB-\LL	4	2.d\ 2.f 2.dd	.	.
16C\	3	.	.	.
16C#X\	2	.	.	.
16D\	1	.	.	.
16E-\	3	.	.	.
16En\JJ	2	.	.	.
16F\LL	1	.	.	.
16En\	3	.	.	.
16G\	1	.	.	.
16F\	2	.	.	.
16E\	3	.	.	.
16F\JJ	1	.	.	.
=2	=2	=2	=2	=2
16AA\LL	5	[4.f\ [4.cc [4.ff	.	.
16C\	.	.	.	.
16C#X\	.	.	.	.
16D\	.	.	.	.
16E-\	.	.	.	.
16En\JJ	.	.	.	.
16F\LL	.	8f\L] 8cc] 8ff]	.	.
16E\	.	.	.	.
16G\	.	8ee-\	.	.
16F\	.	.	.	.
16E\	.	8cc\J	.	.
16F\JJ	.	.	.	.
=3	=3	=3	=3	=3
16D\LL	5	4.b-\	.	.
16F\	4	.	.	.
16B-\	2	.	.	.
16A\	3	.	.	.
16c\	1	.	.	.
16B-\JJ	3	.	.	.
!	!	!	!	!LO:HP:a
16d\LL	4	8b-\LsS	.	<
16B-\	3	.	.	.
16e-X\	.	8cc\	.	.
16B-\	.	.	.	.
16f\	.	8dd\J	.	[
16B-\JJ	.	.	.	.
=4	=4	=4	=4	=4
16d\LL	1	4.b-\	.	.
16B-\	3	.	.	.
16A\	4	.	.	.
16B-\	3	.	.	.
16c\	1	.	.	.
16B-\JJ	2	.	.	.
16A\LL	3	8b-\LsS	.	.
16B-\	2	.	.	.
16A-X\	3	8cc\	.	.
16B-\	2	.	.	.
16F\	4	8a-X\J 8dd	.	.
16B-\JJ	2	.	.	.
!!LO:LB:g=original
=5	=5	=5	=5	=5
16E-\LL	5	8g\ 8ee-	.	.
16G\	3	.	.	.
16B-\	2	[4g\ [4b- [4gg	.	sf
16Bn\	1	.	.	.
16c\	3	.	.	.
16c#X\JJ	2	.	.	.
16d\LL	1	8g\L] 8b-] 8gg]	.	.
16e-\	2	.	.	.
16en\	1	8bn\ 8ff	.	.
16f\	3	.	.	.
16f#X\	2	8cc\J 8ee-	.	.
16g\JJ	1	.	.	.
=6	=6	=6	=6	=6
16E-\LL	5	8g\L 8dd	.	.
16Bn\	2	.	.	.
16c\	1	16cc\L	.	.
16f#X\	2	16aa\	.	.
16g\	1	16bb-\	.	.
16d\JJ	3	16ff#X\JJ	.	.
16e-\LL	2	16gg\LL	.	.
16B\J	5	16dd\	.	.
8c\	1	16ee-\	.	.
.	.	16g\	.	.
8E-\J	5	16dd\	.	.
.	.	16e-\JJ 16cc	.	.
=7	=7	=7	=7	=7
.	.	8qqd/	.	.
16F\LL	4	2.b-/	.	.
16f\	1	.	.	.
16en\	2	.	.	.
16e-X\	3	.	.	.
16d\	1	.	.	.
16c\JJ	2	.	.	.
16B-\LL	3	.	.	.
16A\	1	.	.	.
16G\	2	.	.	.
16F\	1	.	.	.
16En\	2	.	.	.
16E-X\JJ	3	.	.	.
=8	=8	=8	=8	=8
16D/LL	1	[4.f/ [4.cc	.	.
16C/	2	.	.	.
16BB-/	3	.	.	.
16AA/	1	.	.	.
16GG/	2	.	.	.
16FF/JJ	3	.	.	.
16EE/LL	4	4f/] 4cc]	.	.
16FF/	3	.	.	.
16GG/	2	.	.	.
16FF/	1	.	.	.
16EE-/	2	8r	.	.
16CC/JJ	3	.	.	.
!!LO:LB:g=original
=9	=9	=9	=9	=9
.	.	8qqd/	.	.
16BBB-/	4	2.f\ 2.dd	.	.
16C\LL	3	.	.	.
16C#X\	2	.	.	.
16D\	1	.	.	.
16E-\	3	.	.	.
16En\JJ	2	.	.	.
16F\LL	1	.	.	.
16E\	3	.	.	.
16G\	1	.	.	.
16F\	2	.	.	.
16E\	3	.	.	.
16F\JJ	2	.	.	.
=10	=10	=10	=10	=10
16G\LL	1	4.b-\ 4.ee-	.	.
16B-\	4	.	.	.
16e-X\	2	.	.	.
16d\	3	.	.	.
16f\	1	.	.	.
16e-\JJ	2	.	.	.
16F\LL	5	4.b-\ 4.dd	.	.
16B-\	3	.	.	.
16d\	1	.	.	.
16c#X\	3	.	.	.
16e-\	2	.	.	.
16d\JJ	1	.	.	.
=11	=11	=11	=11	=11
16E-\LL	5	4.g\ 4.cc	.	.
16G\	3	.	.	.
16cn\	1	.	.	.
16B\	2	.	.	.
16d\	1	.	.	.
16c\JJ	2	.	.	.
16F\LL	5	4.a-X/ 4.bn	.	sf
16A-X\	3	.	.	.
16Bn\	1	.	.	.
16d\	2	.	.	.
16c\	1	.	.	.
16B\JJ	2	.	.	.
=12	=12	=12	=12	=12
16E-\LL	5	4.g/ 4.cc	.	.
16G\	3	.	.	.
16c\	1	.	.	.
16Bn\	2	.	.	.
16d\	1	.	.	.
16c\JJ	2	.	.	.
16En\LL	5	4.b-\ 4.cc#X 4.gg	.	sf
16B-X\	3	.	.	.
16c#X\	2	.	.	.
16g\	1	.	.	.
16f\	2	.	.	.
16en\JJ	3	.	.	.
!!LO:LB:g=original
=13	=13	=13	=13	=13
*clefG2	*	*	*	*
.	.	8qqdd/	.	.
16f/LL	2	2.ff\ 2.bb- 2.ddd	.	.
16dd/	1	.	.	.
16cc/	2	.	.	.
16b-/	3	.	.	.
16a/	1	.	.	.
16g/JJ	2	.	.	.
16f/LL	2	.	.	.
16en/	3	.	.	.
16e-X/	1	.	.	.
16d/	2	.	.	.
16c/	3	.	.	.
16B-/JJ	1	.	.	.
*clefF4	*	*	*	*
=14	=14	=14	=14	=14
16A\LL	1	2.ee-\ 2.ff 2.ccc	.	.
16G\	2	.	.	.
16F\	1	.	.	.
16En\	2	.	.	.
16E-X\	3	.	.	.
16D\JJ	1	.	.	.
16C/LL	2	.	.	.
16BB-/	3	.	.	.
16AA/	1	.	.	.
16GG/	2	.	.	.
16FF/	3	.	.	.
16AA/JJ	1	.	.	.
=15	=15	=15	=15	=15
16BB-\	2	16dd/ 16ff 16bb-	.	.
!	!	!LO:TX:b:t=m.d	!	!
(16D/LL	.	16ryy	.	.
16F/	.	8ryy	.	.
16A/	.	.	.	.
16B-/JJ)	.	16ryy	.	.
16ryy	.	(16d\LL	.	.
!	!	!LO:TX:a:t=m.g	!	!
8ryy	.	16f\	.	.
.	.	16a\	.	.
4ryy	.	16b-\JJ)	.	.
.	.	(16dd/LL	.	.
!	!	!LO:TX:b:t=m.d	!	!
.	.	16ff/	.	.
.	.	16aa/JJ)	.	.
=16	=16	=16	=16	=16
*>A1	*>A1	*>A1	*>A1	*>A1
*	*	*^	*	*
!	!	!LO:TX:b:t=m.g	!	!	!
4ryy	.	(16bb-\	16ryy	.	.
.	.	16ff/LL	16r	5	.
.	.	16een/	8r	4	.
.	.	16ee-X/	.	3	.
!	!	!LO:TX:b:t=m.d	!	!	!
8ryy	.	16dd/	2ryy	2	.
!	!	!LO:TX:a:t=problem:1 pod łukiem	!	!	!
!	!	!LO:TX:a:t=1	!	!	!
.	.	16cc/JJ	.	1	.
4r	.	16b-/LL	.	3	.
.	.	16a/	.	2	.
.	.	16g/	.	1	.
.	.	16f/	.	2	.
8r	.	16en/	.	1	.
.	.	16e-X/JJ)	.	2	.
!!LO:LB:g=original
=17:|!	=17:|!	=17:|!	=17:|!	=17:|!	=17:|!
*>A2	*>A2	*>A2	*>A2	*>A2	*>A1
!	!	!LO:TX:a:t=m.g	!	!	!
4ryy	.	(<16bb-\	16ryy	.	.
.	.	16ccc#X/LL	16r	4	.
.	.	16ddd/	8r	5	.
.	.	16aa/	.	2	.
!	!	!LO:TX:b:t=m.d	!	!	!
8ryy	.	16cccn/	2ryy	5	.
.	.	16bb-/JJ	.	4	.
!	!	!LO:TX:a:t=problem:2 nad łukiem	!	!	!
!	!	!LO:TX:b:t=2	!	!	!
4r	.	16ff#X/LL	.	2	.
.	.	16aa/	.	5	.
.	.	16gg/	.	4	.
.	.	16cc#X/	.	2	.
8r	.	16ee-/	.	4	.
.	.	16dd/JJ)	.	3	.
*	*	*v	*v	*	*
=18!|:	=18!|:	=18!|:	=18!|:	=18!|:
*>B	*>B	*>B	*>B	*>B
4DD/ 4D	.	16a\LL	1	.
.	.	16eee-\	5	.
.	.	16ddd\	-	.
.	.	16ccc#X\	4	.
8r	.	16cccn\	-	.
.	.	16bb-\JJ	3	.
*clefG2	*	*	*	*
4d/ 4a 4cc	.	16aa\LL	2	.
.	.	16gg\	1	.
.	.	16ff#X\	4	.
.	.	16ee-\	3	.
8r	.	16dd\	1	.
.	.	16cc#X\JJ	2	.
*clefF4	*	*	*	*
=19	=19	=19	=19	=19
4GG`\ 4G	.	16ee-\LL	4	.
.	.	16dd\	-	.
.	.	16a\	1	.
.	.	16ccn\	5	.
8r	.	16b-\	4	.
.	.	16f#X\JJ	2	.
4G\ 4B- 4d	.	16a/LL	5	.
.	.	16g/	4	.
.	.	16c#X/	2	.
.	.	16e-/	4	.
8r	.	16d/	3	.
.	.	16B-/JJ	2	.
=20	=20	=20	=20	=20
4CC/ 4C	.	16A-X/	1	<
.	.	16c/LL	1	.
.	.	16e-/	2	.
.	.	16g/	3	.
8r	.	16a-X/	4	.
.	.	16cc/JJ	1	.
4C\ 4E- 4A-X	.	16ee-\LL	2	.
.	.	16gg\	3	.
.	.	16aa-X\	4	.
.	.	16ccc\	1	.
8r	.	16ddd\	3	.
.	.	16eee-\JJ	4	[
!!LO:LB:g=original
=21	=21	=21	=21	=21
8DD/ 8D	.	16ddd\LL	3	>
.	.	16ccc#X\	2	.
8r	.	16cccn\	1	.
.	.	16bb-\	3	.
4D\ 4An 4c	.	16aan\	2	.
.	.	16gg\JJ	1	.
.	.	16ff#X\LL	4	.
.	.	16ee-\	3	.
4r	.	16dd\	2	.
.	.	16cc\	1	.
.	.	16b-\	3	.
.	.	16a\JJ	2	]
=22	=22	=22	=22	=22
16E-\LL	.	2.g\ 2.b- 2.gg	.	f
16F\	.	.	.	.
16F#X\	.	.	.	.
16G\	.	.	.	.
16A-X\	.	.	.	.
16An\JJ	.	.	.	.
16B-\LL	.	.	.	.
16A\	.	.	.	.
16c\	.	.	.	.
16B-\	.	.	.	.
16A\	.	.	.	.
16B-\JJ	.	.	.	.
*clefG2	*	*	*	*
=23	=23	=23	=23	=23
16c/LL	.	4.ee-\ 4.aa-X	.	.
16e-/	.	.	.	.
16a-X/	.	.	.	.
16g/	.	.	.	.
16b-/	.	.	.	.
16a-/JJ	.	.	.	.
16B-/LL	.	4.ee-\ 4.gg	.	.
16e-/	.	.	.	.
16g/	.	.	.	.
16f#X/	.	.	.	.
16a-X/	.	.	.	.
16g/JJ	.	.	.	.
=24	=24	=24	=24	=24
16A-X/LL	.	4cc\ 4ff	.	.
16c/	.	.	.	.
16f/	.	.	.	.
16en/	.	.	.	.
16g/	.	8r	.	.
16f/JJ	.	.	.	.
!	!	!LO:TX:a:t=problem:takt niemiarowy, kropki przedłużające nuty	!	!
!	!	!LO:N:vis=4.	!	!
16B-/LL	.	4dd-X^<\ 4een	.	.
16d-X/	.	.	.	.
16en/	.	.	.	.
16g/	.	.	.	.
16f/	.	8r	.	.
16e/JJ	.	.	.	.
!!LO:PB:g=original
=25	=25	=25	=25	=25
16A-X/LL	.	4.cc\ 4.ff	.	.
16c/	.	.	.	.
16f/	.	.	.	.
16en/	.	.	.	.
16g/	.	.	.	.
16f/JJ	.	.	.	.
16An/LL	.	4.ee-\ 4.gg-X 4.ccc	.	.
16e-X/	.	.	.	.
16g-/	.	.	.	.
16cc/	.	.	.	.
16b-/	.	.	.	.
16a/JJ	.	.	.	.
=26	=26	=26	=26	=26
16b-/LL	.	2.ee-\ 2.ggn 2.bb-	.	.
16a/	.	.	.	.
16a-X/	.	.	.	.
16g/	.	.	.	.
16f/	.	.	.	.
16e-/JJ	.	.	.	.
16d/LL	.	.	.	.
16c/	.	.	.	.
16B-/	.	.	.	.
16A/	.	.	.	.
16A-X/	.	.	.	.
16G/JJ	.	.	.	.
*clefF4	*	*	*	*
=27	=27	=27	=27	=27
16F\LL	.	4.ee-\ 4.ff 4.bb-	.	.
16E-\	.	.	.	.
16D\	.	.	.	.
16C\	.	.	.	.
16BB-\	.	.	.	.
16AAn\JJ	.	.	.	.
16BB-/LL	.	4dd\ 4ff 4bb-	.	.
16C/	.	.	.	.
16BB-/	.	.	.	.
16GG/	.	.	.	.
16AA-X/	.	8r	.	.
16FF/JJ	.	.	.	.
=28	=28	=28	=28	=28
4EE-/	.	16g\LL	.	p
.	.	16b-\	.	.
.	.	16ee-\	.	.
.	.	16b-\	.	.
8r	.	16gg\	.	.
.	.	16ee-\JJ	.	.
16E-\LL	.	4.f\ 4.an 4.ff	.	sf
16A\	.	.	.	.
16c\	.	.	.	.
16A\	.	.	.	.
16e-\	.	.	.	.
16c\JJ	.	.	.	.
!!LO:LB:g=original
=29	=29	=29	=29	=29
4D\ 4d	.	16f\LL	.	p
.	.	16b-\	.	.
.	.	16dd\	.	.
.	.	16b-\	.	.
8r	.	16ff\	.	.
.	.	16dd\JJ	.	.
16AA\LL	.	4.e-\ 4.g-X 4.ee-	.	sf
16E-\	.	.	.	.
16G-X\	.	.	.	.
16E-\	.	.	.	.
16c\	.	.	.	.
16G-\JJ	.	.	.	.
=30	=30	=30	=30	=30
4BB-\ 4B-	.	16d/LL	.	.
.	.	16f/	.	.
.	.	16b-/	.	.
.	.	16f/	.	.
8r	.	16dd/	.	.
.	.	16b-/JJ	.	.
16EEn/LL	.	4.B-/ 4.d-X 4.b-	.	.
16BB-/	.	.	.	.
16D-X/	.	.	.	.
16BB-/	.	.	.	.
16G/	.	.	.	.
16D-/JJ	.	.	.	.
=31	=31	=31	=31	=31
4FF/	.	16B-/LL	.	.
.	.	16dn/	.	.
.	.	16f/	.	.
.	.	16d/	.	.
8r	.	16b-/	.	.
.	.	16f/JJ	.	.
16EEn/LL	.	4c/ 4e- 4a	.	<
16FF/	.	.	.	.
16FF#X/	.	.	.	.
16GG/	.	.	.	.
16GG#X/	.	8f/	.	[
16AA/JJ	.	.	.	.
=32	=32	=32	=32	=32
16BB-\LL	.	2.d/ 2.f 2.dd	.	.
16C\	.	.	.	.
16C#X\	.	.	.	.
16D\	.	.	.	.
16E-\	.	.	.	.
16En\JJ	.	.	.	.
16F\LL	.	.	.	.
16E\	.	.	.	.
16G\	.	.	.	.
16F\	.	.	.	.
16E\	.	.	.	.
16F\JJ	.	.	.	.
!!LO:LB:g=original
=33	=33	=33	=33	=33
16AA\LL	.	[4.f\ [4.cc [4.ff	.	.
16C\	.	.	.	.
16C#X\	.	.	.	.
16D\	.	.	.	.
16E-\	.	.	.	.
16En\JJ	.	.	.	.
16F\LL	.	8f\L] 8cc] 8ff]	.	.
16E\	.	.	.	.
16G\	.	8ee-\	.	.
16F\	.	.	.	.
16E\	.	8cc\J	.	.
16F\JJ	.	.	.	.
=34	=34	=34	=34	=34
16D\LL	.	4.b-\	.	.
16F\	.	.	.	.
16B-\	.	.	.	.
16A\	.	.	.	.
16c\	.	.	.	.
16B-\JJ	.	.	.	.
16d\LL	.	8b-\LsS	.	.
16B-\	.	.	.	.
16e-X\	.	8cc\	.	.
16B-\	.	.	.	.
16f\	.	8dd\J	.	.
16B-\JJ	.	.	.	.
=35	=35	=35	=35	=35
16d\LL	.	4.b-\	.	.
16B-\	.	.	.	.
16A\	.	.	.	.
16B-\	.	.	.	.
16c\	.	.	.	.
16B-\JJ	.	.	.	.
16A\LL	.	8b-\LsS	.	.
16B-\	.	.	.	.
16A-X\	.	8cc\	.	.
16B-\	.	.	.	.
16F\	.	8a-X\J 8dd	.	.
16B-\JJ	.	.	.	.
=36	=36	=36	=36	=36
16E-\LL	.	8g\ 8ee-	.	.
16G\	.	.	.	.
16B-\	.	[4g^\ [4dd [4gg	.	.
16Bn\	.	.	.	.
16c\	.	.	.	.
16c#X\JJ	.	.	.	.
16d\LL	.	(8g\L] 8dd] 8gg]	.	.
16e-\	.	.	.	.
16en\	.	8bn\ 8ff	.	.
16f\	.	.	.	.
16f#X\	.	8cc\J) 8ee-	.	.
16g\JJ	.	.	.	.
!!LO:LB:g=original
=37	=37	=37	=37	=37
16E-\LL	.	8g\L 8dd	.	.
16Bn\	.	.	.	.
16c\	.	16cc`\L	.	.
16f#X\	.	(16aa\	.	.
16g\	.	16bb-\)	.	.
16d\JJ	.	16ff#X`\JJ	.	.
16e-\LL	.	(16gg\LL	.	.
16Bn\J	.	16dd\)	.	.
8c\	.	16ee-\	.	.
.	.	16g\	.	.
8E-\J	.	16dd\	.	.
.	.	16e-\JJ 16cc	.	.
=38	=38	=38	=38	=38
.	.	8qqd/	.	.
16F\LL	.	2.b-\	.	.
16f\	.	.	.	.
16en\	.	.	.	.
16e-X\	.	.	.	.
16d\	.	.	.	.
16c\JJ	.	.	.	.
16B-\LL	.	.	.	.
16A\	.	.	.	.
16G\	.	.	.	.
16F\	.	.	.	.
16En\	.	.	.	.
16E-X\JJ	.	.	.	.
=39	=39	=39	=39	=39
16D/LL	.	[4.f/ [4.cc	.	.
16C/	.	.	.	.
16BB-/	.	.	.	.
16AA/	.	.	.	.
16GG/	.	.	.	.
16FF/JJ	.	.	.	.
16EEn/LL	.	4f/] 4cc]	.	.
16FF/	.	.	.	.
16GG/	.	.	.	.
16FF/	.	.	.	.
16EE-/	.	8r	.	.
16CC/JJ	.	.	.	.
=40	=40	=40	=40	=40
.	.	8qqd/	.	.
16BBB-/	.	2.f\ 2.dd	.	.
16C\LL	.	.	.	.
16C#X\	.	.	.	.
16D\	.	.	.	.
16E-\	.	.	.	.
16En\JJ	.	.	.	.
16F\LL	.	.	.	.
16E\	.	.	.	.
16G\	.	.	.	.
16F\	.	.	.	.
16E\	.	.	.	.
16F\JJ	.	.	.	.
!!LO:LB:g=original
=41	=41	=41	=41	=41
16G\LL	.	4.b-\ 4.ee-X	.	.
16B-\	.	.	.	.
16e-X\	.	.	.	.
16d\	.	.	.	.
16f\	.	.	.	.
16e-\JJ	.	.	.	.
16F\LL	.	4.b-\ 4.dd	.	.
16B-\	.	.	.	.
16d\	.	.	.	.
16c#X\	.	.	.	.
16e-\	.	.	.	.
16d\JJ	.	.	.	.
=42	=42	=42	=42	=42
16E-\LL	.	4.g\ 4.cc	.	.
16G\	.	.	.	.
16c\	.	.	.	.
16B-\	.	.	.	.
16d\	.	.	.	.
16c\JJ	.	.	.	.
16F\LL	.	4.a-X/ 4.bn	.	rf
16A-X\	.	.	.	.
16Bn\	.	.	.	.
16d\	.	.	.	.
16c\	.	.	.	.
16B\JJ	.	.	.	.
=43	=43	=43	=43	=43
16E-\LL	.	4.g\ 4.cc	.	.
16G\	.	.	.	.
16c\	.	.	.	.
16Bn\	.	.	.	.
16d\	.	.	.	.
16c\JJ	.	.	.	.
16En\LL	.	4.b-X\ 4.cc#X 4.gg	.	rf
16B-X\	.	.	.	.
16c#X\	.	.	.	.
16g\	.	.	.	.
16f\	.	.	.	.
16en\JJ	.	.	.	.
*clefG2	*	*	*	*
=44	=44	=44	=44	=44
.	.	8qqdd/	.	.
16f/LL	.	2.ff\ 2.bb- 2.ddd	.	.
16dd/	.	.	.	.
16cc/	.	.	.	.
16b-/	.	.	.	.
16a/	.	.	.	.
16g/JJ	.	.	.	.
16f/LL	.	.	.	.
16en/	.	.	.	.
16e-X/	.	.	.	.
16d/	.	.	.	.
16c/	.	.	.	.
16B-/JJ	.	.	.	.
!!LO:LB:g=original
=45	=45	=45	=45	=45
*clefF4	*	*	*	*
16A\LL	.	2.ee-X\ 2.ff 2.ccc	.	.
16G\	.	.	.	.
16F\	.	.	.	.
16En\	.	.	.	.
16E-X\	.	.	.	.
16D\JJ	.	.	.	.
16C/LL	.	.	.	.
16BB-/	.	.	.	.
16AA/	.	.	.	.
16GG/	.	.	.	.
16FF/	.	.	.	.
16AA/JJ	.	.	.	.
=46	=46	=46	=46	=46
16BB-\	.	16dd\ 16ff 16bb-	.	.
!LO:TX:b:t=m.d	!	!	!	!
16D/LL	.	16ryy	.	.
16F/	.	8ryy	.	.
16A/	.	.	.	.
16B-/JJ	.	16ryy	.	.
16ryy	.	16d\LL	.	.
!	!	!LO:TX:a:t=m.g	!	!
8ryy	.	16f\	.	.
.	.	16a\	.	.
4ryy	.	16b-\JJ	.	.
.	.	16dd/LL	.	.
!	!	!LO:TX:b:t=m.d	!	!
.	.	16ff/	.	.
.	.	16aa/JJ	.	.
=47	=47	=47	=47	=47
*>B1	*>B1	*>B1	*>B1	*>B1
*	*	*^	*	*
!	!	!LO:TX:a:t=m.g	!	!	!
4ryy	.	(<16bb-\	16ryy	.	.
.	.	16ccc#X/LL	16r	.	.
.	.	16ddd/	8r	.	.
.	.	16aa/	.	.	.
!	!	!LO:TX:b:t=m.d	!	!	!
8ryy	.	16cccn/	2ryy	.	.
.	.	16bb-/JJ	.	.	.
!	!	!LO:TX:a:t=problem:1 pod łukiem	!	!	!
!	!	!LO:TX:b:t=1	!	!	!
4r	.	16ff#X/LL	.	.	.
.	.	16aa/	.	.	.
.	.	16gg/	.	.	.
.	.	16cc#X/	.	.	.
8r	.	16ee-/	.	.	.
.	.	16dd/JJ)	.	.	.
=48:|!	=48:|!	=48:|!	=48:|!	=48:|!	=48:|!
*>B2	*>B2	*>B2	*>B2	*>B2	*>B2
!	!	!LO:TX:b:t=m.g	!	!	!
4ryy	.	(16bb-\	16ryy	.	.
.	.	16ff/LL	16r	.	.
.	.	16een/	8r	.	.
.	.	16ee-X/	.	.	.
!	!	!LO:TX:b:t=m.d	!	!	!
8ryy	.	16dd/	2ryy	.	.
!	!	!LO:TX:a:t=problem:2 pod łukiem	!	!	!
!	!	!LO:TX:a:t=2	!	!	!
.	.	16cc/JJ	.	.	.
4r	.	16b-/LL	.	.	.
.	.	16a/	.	.	.
.	.	16g/	.	.	.
.	.	16f/	.	.	.
!LO:TX:v:t=3 0 4 3	!	!	!	!	!
8r	.	16en/	.	.	.
!	!	!LO:TX:b:i:t=V.S	!	!	!
.	.	16f/JJ)	.	.	.
*	*	*v	*v	*	*
!!LO:LB:g=original
=49	=49	=49	=49	=49
*>C	*>C	*>C	*>C	*>C
16F\LL	5	2e-/ 2f 2a	.	.
16G\	4	.	.	.
16G#X\	3	.	.	.
16A\	1	.	.	.
16B-\	3	.	.	.
16Bn\JJ	2	.	.	.
16c\LL	1	.	.	.
16B\	3	.	.	.
16d\	1	4r	.	.
16c\	2	.	.	.
16A\	.	.	.	.
16F\JJ	.	.	.	.
=50	=50	=50	=50	=50
16B-\LL	2	2f/ 2b- 2dd	.	.
16c\	1	.	.	.
16c#X\	2	.	.	.
16d\	1	.	.	.
16e-\	2	.	.	.
16en\JJ	1	.	.	.
16f\LL	2	.	.	.
16e\	3	.	.	.
16g\	1	4r	.	.
16f\	2	.	.	.
16d\	3	.	.	.
16B-\JJ	5	.	.	.
=51	=51	=51	=51	=51
16e-X\LL	2	16g\LL	1	.
16d\	3	16bn\	2	.
16e-\	2	16cc\	1	.
16Bn\	5	16dd\	2	.
16c\	4	16ee-\	3	.
16d\JJ	3	16ff#X\JJ	4	.
16e-\LL	2	16gg\LL	5	.
16d\	3	16ff#X\	4	.
16e-\	2	16gg\	5	.
16Bn\	5	16dd\	2	.
16c\	4	16ee-\	3	.
16d\JJ	3	16bn\JJ	1	.
!!LO:LB:g=original
=52	=52	=52	=52	=52
16e-\	.	16cc\	.	.
16f#X\LL	.	16aa\LL	.	.
16g\	.	16bb-\	.	.
16d\	.	16ff#X\	.	.
16e-\	.	16gg\	.	.
16f#\JJ	.	16aa\JJ	.	.
16g\LL	.	16bb-\LL	.	.
16d\	.	16ff#X\	.	.
16e-\	.	16gg\	.	.
16f#\	.	16aa\	.	.
16g\	.	16bb-\	.	.
16d\JJ	.	16ff#X\JJ	.	.
=53	=53	=53	=53	=53
(4.e-\	.	16gg\	.	.
.	.	16f#X/LL	.	.
.	.	16g/	.	.
.	.	16cc/	.	.
.	.	16ee-/	.	.
.	.	16dd/JJ	.	.
.	.	8qdd/	.	.
16e-\LL)	.	16cc/LL	.	.
16d\	.	16bn/	.	.
16e-\	.	16cc/	.	.
16E-\	.	16g/	.	.
16g\	.	16ee-/	.	.
16f\JJ	.	16dd/JJ	.	.
=54	=54	=54	=54	=54
*	*	*^	*	*
16e-\	.	16cc/	16ryy	.	.
16ryy	.	16aa/LL	16ff#X\LL	.	.
8ryy	.	16bb-/	16gg\	.	.
.	.	16ff#X/	16dd\	.	.
2ryy	.	16gg/	16ee-\	.	.
.	.	16dd/JJ	16bn\JJ	.	.
.	.	16ffn/LL	8cc\L	.	.
.	.	16ee-/	.	.	.
.	.	16dd/ 16g/	8e-\	.	.
.	.	16ee-/	.	.	.
.	.	16cc/ 16e-/	<8E-\J	.	.
.	.	16dd/JJ	.	.	.
*	*	*v	*v	*	*
!!LO:LB:g=original
=55	=55	=55	=55	=55
16F\	.	4d/ 4b-	.	.
*clefG2	*	*	*	*
16dd\LL	.	.	.	.
16cc\	.	.	.	.
16b-\	.	.	.	.
16a\	.	8r	.	.
16g\JJ	.	.	.	.
16f/LL	.	4dd:\ 4ff: 4bb-: 4ddd:	.	.
16en/	.	.	.	.
16e-X/	.	.	.	.
16d/	.	.	.	.
16c/	.	8r	.	.
16B-/JJ	.	.	.	.
*clefF4	*	*	*	*
=56	=56	=56	=56	=56
16A\LL	.	4cc:\ 4ee-: 4ff: 4ccc:	.	f
16G\	.	.	.	.
16F\	.	.	.	.
16En\	.	.	.	.
16E-X\	.	8r	.	.
16D\JJ	.	.	.	.
16C/LL	.	4ff:\ 4aa: 4ccc: 4fff:	.	.
16BB-/	.	.	.	.
16AA/	.	.	.	.
16GG/	.	.	.	.
16FF/	.	8r	.	.
16AA/JJ	.	.	.	.
=57	=57	=57	=57	=57
!	!	!LO:TX:ai:t=ten	!	!
16BB-\LL	.	2.d/ 2.f 2.b- 2.dd	.	p
16C\	.	.	.	.
16C#X\	.	.	.	.
16D\	.	.	.	.
16E-\	.	.	.	.
16En\JJ	.	.	.	.
16F\LL	.	.	.	.
16E\	.	.	.	.
16G\	.	.	.	.
16F\	.	.	.	.
16E\	.	.	.	.
16F\JJ	.	.	.	.
!!LO:LB:g=original
=58	=58	=58	=58	=58
16AA\LL	.	[4.f\ [4.cc [4.ff	.	.
16C\	.	.	.	.
16C#X\	.	.	.	.
16D\	.	.	.	.
16E-\	.	.	.	.
16En\JJ	.	.	.	.
!	!	!	!	!LO:DY:a
(16F\LL	.	4f\] 4cc] 4ff]	.	>
16E\	.	.	.	.
16G\	.	.	.	.
16F\	.	.	.	.
16E\	.	8r	.	.
16E-X\JJ)	.	.	.	]
=59	=59	=59	=59	=59
.	.	8qff/	.	.
4D\	.	16fff\LL	5	.
.	.	16eeen\	4	.
.	.	16eee-X\	3	.
.	.	16ddd\	2	.
8r	.	16ccc\	1	.
.	.	16bb-\JJ	3	.
4F#X\ 4A 4e-	.	16aa\LL	2	.
.	.	16gg\	1	.
.	.	16ff#X\	4	.
.	.	16ffn\	-	.
8r	.	16een\	3	.
.	.	16ee-X\JJ	2	.
=60	=60	=60	=60	=60
4G\ 4B- 4d	.	16dd\LL	1	.
.	.	16cc#X\	4	.
.	.	16ccn\	-	.
.	.	16b-\	3	.
8r	.	16a\	2	.
.	.	16g\JJ	1	.
4D\ 4A 4c	.	16f#X/LL	4	.
.	.	16e-/	3	.
.	.	16d/	2	.
.	.	16c/	1	.
8r	.	16B-/	3	.
.	.	16A/JJ	2	.
!!LO:LB:g=original
=61	=61	=61	=61	=61
4EE-/ 4E-	.	16G/LL	1	.
.	.	16Bn/	2	.
.	.	16c/	3	.
.	.	16d/	1	.
8r	.	16e-/	2	.
.	.	16f#X/JJ	3	.
4E-\ 4G 4c	.	16g/LL	1	.
.	.	16a/	2	.
.	.	16b-/	3	.
.	.	16bn/	1	.
8r	.	16dd/	4	.
.	.	16cc/JJ	3	.
=62	=62	=62	=62	=62
4FF/ 4F	.	(16b-/LL	2	.
.	.	16a/	1	.
.	.	16ff/	5	.
.	.	16een/	4	.
8F\ 8A 8e-	.	16ee-X/	3	.
.	.	16cc/JJ)	1	.
4B-\ 4d	.	4b-/	2	.
8r	.	8r	.	.
*clefG2	*	*	*	*
=63	=63	=63	=63	=63
4.f/ 4.cc 4.ee-	.	(16aa\LL	.	.
.	.	16ccc\	.	.
.	.	16eee-\	.	.
.	.	16ggg\	.	.
.	.	16fff\	.	.
.	.	16aa\JJ	.	.
4b-\ 4dd	.	4bb-\)	.	.
8r	.	8r	.	.
*clefF4	*	*	*	*
=64	=64	=64	=64	=64
(16EEn/LL	.	4c/ 4e- 4a	.	<
16FF/	.	.	.	.
16FF#X/	.	.	.	.
16GG/	.	.	.	.
16GG#X/	.	8f/	.	[
16AA/JJ	.	.	.	.
4BB-/)	.	4B-/ 4d 4b-	.	.
8r	.	8r	.	.
!!LO:LB:g=original
=65	=65	=65	=65	=65
!	!	!LO:TUP:b	!	!
4c\ 4e-	.	(24en/LL	.	.
.	.	24f/	.	.
.	.	24f#X/	.	.
.	.	24g/	.	.
.	.	24g#X/	.	.
.	.	24a/	.	.
8F\	.	24b-/	.	.
.	.	24bn/	.	.
.	.	24cc/JJ)	.	.
!	!	!LO:TUP:a	!	!
!	!	!LO:TX:b:i:t=cresc.	!	!
4B-\ 4d	.	(24cc#X\LL	.	.
.	.	24dd\	.	.
.	.	24ee-\	.	.
.	.	24een\	.	.
.	.	24ff\	.	.
.	.	24ff#X\	.	.
8F\	.	24gg\	.	.
.	.	24gg#X\	.	.
.	.	24aa\JJ)	.	.
=66	=66	=66	=66	=66
4c\ 4e- 4f	.	32bb-\LLL	.	.
.	.	32bbn\	.	.
.	.	32ccc\	.	.
.	.	32ccc#X\	.	.
.	.	32ddd\	.	.
.	.	32eee-\	.	.
.	.	32eeen\	.	.
.	.	32fff\	.	.
8F\	.	32fff#X\	.	.
.	.	32ggg\	.	.
.	.	32ggg#X\	.	.
.	.	32aaa\JJJ	.	.
4B-\ 4d	.	4bbb-\	.	.
8r	.	8r	.	.
=67	=67	=67	=67	=67
4FF/ 4F	.	4f\ 4a 4cc 4ff	.	ff
8r	.	8r	.	.
4.BB-;/ 4.B-	.	4.d;/ 4.f 4.b- 4.dd	.	.
==	==	==	==	==
*-	*-	*-	*-	*-
!!!system-decoration: {(s1,s2)}
!!!RDF**kern: <= below
!!!RDF**kern: >= above
!!!ENC: Anna Matuszewska
!!!END: 2020-07-19
!!!YEC: Copyright 2022 Narodowy Instytut Fryderyka Chopina (https://polishscores.org)
!!!YEM: License CC-BY-4.0 (https://creativecommons.org/licenses/by/4.0)
